X: 831
T: Lasses likes nea Brandy
T: Lasses like(s) nae Brandy
N: The "nea" is an odd spelling; it's usually "nae".
R: reel
B: Robert Bremner "A Collection of Scots Reels or Country Dances" 1757 p.83 #1
S: http://imslp.org/wiki/A_Collection_of_Scots_Reels_or_Country_Dances_(Bremner,_Robert)
Z: 2013 John Chambers <jc:trillian.mit.edu>
M: C
L: 1/8
K: Amix
% - - - - - - - - - - - - - - - - - - - - - - - - -
V: 1
|:\
(ef/^g/a)e fdec | Bg-gB d2Tf2 |\
(ef/^g/a)e fdec | ea-ac e2Tf2 :|
|:\
eATcA eATcA | BggB d2Tf2 |\
eA TcA (a/^g/f/e/) TcA | eaac e2Tf2 :|
% - - - - - - - - - - - - - - - - - - - - - - - - -
V: 2 clef=bass middle=d
|:\
a2a2 a2a2 | g2g2 g2g2 |\
a2a2 a2a2 | a2a2 a2a2 :|
|:\
a2a2 a2a2 | g2g2 g2g2 |\
a2a2 a2a2 | a2a2 a2a2 :|
% - - - - - - - - - - - - - - - - - - - - - - - - -

%%sep 1 1 500
%%sep 1 1 500
